;FLAVOR:UltiGCode
;TIME:12540
;MATERIAL:13451
;MATERIAL2:0
;NOZZLE_DIAMETER:0.4
;MINX:63.96
;MINY:90.768
;MINZ:0.27
;MAXX:159.44
;MAXY:132.055
;MAXZ:30.87
;TARGET_MACHINE.NAME:Ultimaker 2+
;Generated with Cura_SteamEngine 5.6.0
M82 ;absolute extrusion mode
G0 F3000 Y50 ;avoid prime blob
G92 E0
G92 E0
G10
;LAYER_COUNT:307
;LAYER:0
M107
G0 F7200 X68.043 Y92.58 Z0.27
;TYPE:SKIRT
G11
G1 F1800 X71.102 Y91.585 E0.34741
G1 X89.727 Y91.655 E2.35892
G1 X91.612 Y91.965 E2.56524
G1 X93.792 Y93.334 E2.84325
G1 X95.857 Y92.665 E3.07768
G1 X100.833 Y92.665 E3.61509
G1 X102.604 Y93.266 E3.81707
G1 X103.933 Y92.206 E4.00067
G1 X106.542 Y91.585 E4.29031
G1 X127.311 Y91.583 E6.53337
G1 X128.288 Y91.156 E6.64852
G1 X130.621 Y90.768 E6.90394
G1 X131.335 Y90.837 E6.98141
G1 X134.069 Y91.722 E7.29177
G1 X135.822 Y93.11 E7.53326
G1 X137.197 Y92.665 E7.68934
G1 X142.087 Y92.665 E8.21746
G1 X143.858 Y93.266 E8.41944
G1 X145.187 Y92.206 E8.60304
G1 X147.801 Y91.585 E8.8932
G1 X151.71 Y91.585 E9.31538
G1 X154.328 Y92.475 E9.61401
G1 X154.644 Y92.675 E9.6544
G1 X157.137 Y95.242 E10.04086
G1 X158.14 Y98.314 E10.38987
G1 X158.142 Y103.445 E10.94402
G1 X158.855 Y104.714 E11.10123
G1 X159.435 Y106.793 E11.33433
G1 X159.439 Y109.862 E11.66578
G1 X159.396 Y110.574 E11.74282
G1 X159.44 Y111.305 E11.82191
G1 X159.44 Y113.631 E12.07312
G1 X158.758 Y116.469 E12.38835
G1 X158.146 Y117.315 E12.50112
G1 X158.139 Y124.608 E13.28876
G1 X157.717 Y126.52 E13.50023
G1 X156.609 Y128.334 E13.72979
G1 X154.461 Y130.416 E14.05287
G1 X151.382 Y131.415 E14.40247
G1 X147.34 Y131.415 E14.839
G1 X144.656 Y130.545 E15.14372
G1 X143.761 Y129.696 E15.27695
G1 X141.785 Y130.335 E15.50124
G1 X137.282 Y130.335 E15.98757
G1 X135.75 Y129.997 E16.157
G1 X133.922 Y131.466 E16.41027
G1 X131.289 Y132.055 E16.70167
G1 X128.743 Y131.992 E16.97672
G1 X127.402 Y131.465 E17.13233
G1 X126.501 Y131.427 E17.22972
G1 X106.077 Y131.414 E19.43551
G1 X103.38 Y130.536 E19.74184
G1 X102.5 Y129.697 E19.87315
G1 X100.531 Y130.335 E20.09669
G1 X95.946 Y130.335 E20.59187
G1 X94.146 Y129.943 E20.79082
G1 X93.861 Y129.802 E20.82516
G1 X90.412 Y131.415 E21.23638
G1 X71.181 Y131.415 E23.31333
G1 X69.101 Y130.961 E23.54326
G1 X67.376 Y129.828 E23.76615
G1 X65.383 Y127.797 E24.07346
G1 X64.377 Y124.841 E24.41069
G1 X64.321 Y121.692 E24.75084
G1 X63.96 Y120.163 E24.92051
G1 X63.96 Y116.751 E25.28901
G1 X64.331 Y115.48 E25.432
G1 X64.352 Y114.742 E25.51174
G1 X64.361 Y112.26 E25.7798
G1 X64.47 Y111.766 E25.83443
G1 X64.36 Y111.205 E25.89617
G1 X64.36 Y107.602 E26.2853
G1 X63.96 Y106.433 E26.41874
G1 X63.96 Y102.559 E26.83713
G1 X64.355 Y101.309 E26.97871
G1 X64.361 Y98.403 E27.29256
G1 X64.841 Y96.261 E27.52963
G1 X65.976 Y94.571 E27.74949
G1 X68.043 Y92.58 E28.05945
G0 F7200 X68.255 Y92.931
G1 F1800 X71.164 Y91.985 E28.38981
G1 X89.662 Y92.05 E30.38761
G1 X91.467 Y92.347 E30.58517
G1 X93.737 Y93.773 E30.87469
G1 X95.921 Y93.065 E31.12265
G1 X100.766 Y93.065 E31.64591
G1 X102.683 Y93.716 E31.86456
G1 X104.114 Y92.574 E32.06229
G1 X106.589 Y91.985 E32.33705
G1 X127.395 Y91.983 E34.5841
G1 X128.402 Y91.543 E34.70278
G1 X130.637 Y91.171 E34.94748
G1 X131.251 Y91.231 E35.01411
G1 X133.878 Y92.081 E35.31231
G1 X135.742 Y93.557 E35.56909
G1 X137.261 Y93.065 E35.74153
G1 X142.02 Y93.065 E36.25551
G1 X143.937 Y93.716 E36.47416
G1 X145.368 Y92.574 E36.67188
G1 X147.847 Y91.985 E36.94707
G1 X151.643 Y91.985 E37.35704
G1 X154.199 Y92.854 E37.6486
G1 X154.357 Y92.954 E37.6688
G1 X156.786 Y95.455 E38.04533
G1 X157.74 Y98.377 E38.3773
G1 X157.742 Y103.55 E38.93598
G1 X158.483 Y104.87 E39.09947
G1 X159.035 Y106.847 E39.32115
G1 X159.039 Y109.863 E39.64688
G1 X158.996 Y110.574 E39.72381
G1 X159.04 Y111.305 E39.8029
G1 X159.04 Y113.584 E40.04903
G1 X158.388 Y116.298 E40.35048
G1 X157.746 Y117.185 E40.46874
G1 X157.739 Y124.563 E41.26556
G1 X157.34 Y126.371 E41.46553
G1 X156.295 Y128.082 E41.68205
G1 X154.249 Y130.065 E41.98978
G1 X151.321 Y131.015 E42.32223
G1 X147.401 Y131.015 E42.74559
G1 X144.866 Y130.193 E43.0334
G1 X143.863 Y129.242 E43.18268
G1 X141.721 Y129.935 E43.42582
G1 X137.327 Y129.935 E43.90037
G1 X135.65 Y129.565 E44.08584
G1 X133.744 Y131.096 E44.34988
G1 X131.252 Y131.654 E44.62568
G1 X128.822 Y131.594 E44.8882
G1 X127.484 Y131.068 E45.04346
G1 X126.518 Y131.027 E45.14789
G1 X106.14 Y131.014 E47.34871
G1 X103.591 Y130.184 E47.63823
G1 X102.603 Y129.243 E47.78559
G1 X100.467 Y129.935 E48.02808
G1 X95.99 Y129.935 E48.51159
G1 X94.231 Y129.552 E48.70602
G1 X93.772 Y129.297 E48.76273
G1 X93.523 Y129.519 E48.79875
G1 X90.324 Y131.015 E49.18016
G1 X71.225 Y131.015 E51.24285
G1 X69.257 Y130.585 E51.46041
G1 X67.634 Y129.52 E51.67006
G1 X65.733 Y127.582 E51.96325
G1 X64.776 Y124.77 E52.28405
G1 X64.72 Y121.643 E52.62182
G1 X64.36 Y120.118 E52.79105
G1 X64.36 Y116.808 E53.14853
G1 X64.73 Y115.542 E53.29098
G1 X64.752 Y114.753 E53.37622
G1 X64.761 Y112.306 E53.6405
G1 X64.879 Y111.769 E53.69988
G1 X64.76 Y111.205 E53.76213
G1 X64.76 Y107.537 E54.15828
G1 X64.36 Y106.368 E54.29171
G1 X64.36 Y102.62 E54.6965
G1 X64.755 Y101.37 E54.83808
G1 X64.761 Y98.447 E55.15376
G1 X65.215 Y96.422 E55.37789
G1 X66.283 Y94.831 E55.58484
G1 X68.255 Y92.931 E55.88059
G0 F7200 X68.466 Y93.283
G1 F1800 X71.226 Y92.385 E56.19405
G1 X89.597 Y92.445 E58.17813
G1 X91.322 Y92.729 E58.36694
G1 X93.368 Y94.014 E58.62787
G1 X93.603 Y94.237 E58.66286
G1 X95.985 Y93.465 E58.93329
G1 X100.699 Y93.465 E59.4424
G1 X102.761 Y94.165 E59.67758
G1 X104.294 Y92.942 E59.88938
G1 X106.636 Y92.385 E60.14937
G1 X127.479 Y92.383 E62.40041
G1 X128.516 Y91.93 E62.52263
G1 X130.653 Y91.574 E62.7566
G1 X131.167 Y91.625 E62.81239
G1 X133.687 Y92.44 E63.09843
G1 X135.394 Y93.792 E63.3336
G1 X135.595 Y94.025 E63.36684
G1 X137.322 Y93.465 E63.56291
G1 X141.953 Y93.465 E64.06306
G1 X144.015 Y94.165 E64.29824
G1 X145.548 Y92.942 E64.51004
G1 X147.893 Y92.385 E64.77034
G1 X151.576 Y92.385 E65.16811
G1 X154.07 Y93.233 E65.4526
G1 X156.435 Y95.668 E65.81921
G1 X157.34 Y98.44 E66.13413
G1 X157.342 Y103.655 E66.69735
G1 X158.111 Y105.025 E66.86703
G1 X158.635 Y106.902 E67.0775
G1 X158.639 Y109.864 E67.39739
G1 X158.596 Y110.574 E67.47421
G1 X158.64 Y111.305 E67.5533
G1 X158.64 Y113.537 E67.79436
G1 X158.018 Y116.127 E68.08203
G1 X157.346 Y117.055 E68.20577
G1 X157.339 Y124.518 E69.01178
G1 X156.963 Y126.222 E69.20024
G1 X155.981 Y127.83 E69.40373
G1 X154.037 Y129.714 E69.6961
G1 X151.26 Y130.615 E70.0114
G1 X147.465 Y130.615 E70.42126
G1 X145.074 Y129.84 E70.69272
G1 X143.965 Y128.788 E70.8578
G1 X141.657 Y129.535 E71.1198
G1 X137.371 Y129.535 E71.58269
G1 X135.78 Y129.189 E71.75853
G1 X135.588 Y129.102 E71.7813
G1 X133.566 Y130.726 E72.06139
G1 X131.215 Y131.253 E72.3216
G1 X128.901 Y131.196 E72.57158
G1 X127.566 Y130.671 E72.72651
G1 X126.535 Y130.627 E72.83796
G1 X106.203 Y130.614 E75.03382
G1 X103.802 Y129.832 E75.30653
G1 X102.706 Y128.789 E75.46993
G1 X100.403 Y129.535 E75.73138
G1 X96.034 Y129.535 E76.20323
G1 X94.316 Y129.161 E76.39312
G1 X93.704 Y128.787 E76.47058
G1 X93.354 Y129.157 E76.52559
G1 X90.236 Y130.615 E76.89733
G1 X71.269 Y130.615 E78.94577
G1 X69.414 Y130.21 E79.15083
G1 X67.891 Y129.21 E79.3476
G1 X66.083 Y127.367 E79.62643
G1 X65.175 Y124.699 E79.9308
G1 X65.119 Y121.594 E80.2662
G1 X64.76 Y120.073 E80.43498
G1 X64.76 Y116.865 E80.78144
G1 X65.129 Y115.604 E80.92334
G1 X65.152 Y114.764 E81.01409
G1 X65.161 Y112.307 E81.27945
G1 X65.29 Y111.77 E81.3391
G1 X65.16 Y111.205 E81.40171
G1 X65.16 Y107.472 E81.80488
G1 X64.76 Y106.303 E81.93832
G1 X64.76 Y102.681 E82.32949
G1 X65.155 Y101.431 E82.47107
G1 X65.161 Y98.491 E82.78859
G1 X65.589 Y96.583 E82.99978
G1 X66.592 Y95.088 E83.19421
G1 X68.466 Y93.283 E83.47521
G0 F7200 X68.678 Y93.634
G1 F1800 X71.288 Y92.785 E83.77163
G1 X89.532 Y92.84 E85.74199
G1 X91.177 Y93.111 E85.92205
G1 X93.155 Y94.353 E86.17429
G1 X93.529 Y94.728 E86.23149
G1 X93.703 Y94.625 E86.25333
G1 X96.049 Y93.865 E86.51966
G1 X100.632 Y93.865 E87.01463
G1 X102.84 Y94.615 E87.26647
G1 X104.475 Y93.31 E87.4924
G1 X106.683 Y92.785 E87.73751
G1 X127.563 Y92.783 E89.99255
G1 X128.63 Y92.317 E90.1183
G1 X130.719 Y91.969 E90.34702
G1 X131.044 Y92.006 E90.38235
G1 X133.496 Y92.799 E90.66067
G1 X135.146 Y94.106 E90.888
G1 X135.458 Y94.49 E90.94144
G1 X137.386 Y93.865 E91.16033
G1 X141.886 Y93.865 E91.64633
G1 X144.094 Y94.615 E91.89817
G1 X145.729 Y93.31 E92.1241
G1 X147.939 Y92.785 E92.36943
G1 X151.509 Y92.785 E92.75499
G1 X153.85 Y93.581 E93.02203
G1 X156.084 Y95.881 E93.36832
G1 X156.94 Y98.503 E93.6662
G1 X156.942 Y103.76 E94.23396
G1 X157.74 Y105.181 E94.40997
G1 X158.235 Y106.956 E94.60898
G1 X158.239 Y109.865 E94.92316
G1 X158.196 Y110.574 E94.99987
G1 X158.24 Y111.305 E95.07896
G1 X158.24 Y113.49 E95.31494
G1 X157.648 Y115.956 E95.58884
G1 X156.946 Y116.925 E95.71806
G1 X156.939 Y124.473 E96.53325
G1 X156.586 Y126.073 E96.7102
G1 X155.667 Y127.578 E96.90065
G1 X153.825 Y129.363 E97.17767
G1 X151.199 Y130.215 E97.47583
G1 X147.526 Y130.215 E97.87252
G1 X145.284 Y129.488 E98.12706
G1 X144.067 Y128.334 E98.3082
G1 X141.593 Y129.135 E98.58904
G1 X137.415 Y129.135 E99.04027
G1 X135.865 Y128.798 E99.21158
G1 X135.495 Y128.597 E99.25705
G1 X135.342 Y128.787 E99.2834
G1 X133.388 Y130.356 E99.55404
G1 X131.177 Y130.852 E99.79877
G1 X128.98 Y130.798 E100.03611
G1 X127.648 Y130.274 E100.1907
G1 X126.552 Y130.227 E100.30918
G1 X106.266 Y130.214 E102.50007
G1 X104.013 Y129.48 E102.75598
G1 X102.809 Y128.335 E102.93542
G1 X100.339 Y129.135 E103.21583
G1 X96.078 Y129.135 E103.67601
G1 X94.465 Y128.784 E103.85429
G1 X93.612 Y128.263 E103.96224
G1 X93.185 Y128.795 E104.03592
G1 X90.148 Y130.215 E104.398
G1 X71.313 Y130.215 E106.43218
G1 X69.571 Y129.835 E106.62474
G1 X68.148 Y128.9 E106.80863
G1 X66.433 Y127.152 E107.0731
G1 X65.574 Y124.628 E107.36104
G1 X65.518 Y121.545 E107.69406
G1 X65.16 Y120.028 E107.8624
G1 X65.16 Y116.922 E108.19785
G1 X65.528 Y115.666 E108.3392
G1 X65.552 Y114.775 E108.43546
G1 X65.561 Y112.308 E108.7019
G1 X65.703 Y111.774 E108.76158
G1 X65.56 Y111.205 E108.82494
G1 X65.56 Y107.407 E109.23512
G1 X65.16 Y106.238 E109.36856
G1 X65.16 Y102.742 E109.74613
G1 X65.555 Y101.492 E109.88771
G1 X65.561 Y98.535 E110.20707
G1 X65.963 Y96.744 E110.40531
G1 X66.899 Y95.348 E110.58683
G1 X68.678 Y93.634 E110.85362
G0 F7200 X68.889 Y93.986
G1 F1800 X71.35 Y93.185 E111.13314
G1 X89.467 Y93.235 E113.08978
G1 X91.032 Y93.493 E113.26108
G1 X92.942 Y94.692 E113.50464
G1 X93.483 Y95.259 E113.58928
G1 X93.826 Y95.006 E113.63531
G1 X96.113 Y94.265 E113.89494
G1 X100.565 Y94.265 E114.37576
G1 X102.571 Y94.947 E114.60459
G1 X102.83 Y95.136 E114.63921
G1 X104.656 Y93.678 E114.89158
G1 X106.73 Y93.185 E115.12181
G1 X127.648 Y93.183 E117.38095
G1 X128.744 Y92.704 E117.51013
G1 X130.732 Y92.373 E117.72779
G1 X130.921 Y92.387 E117.74826
G1 X133.305 Y93.158 E118.01886
G1 X134.898 Y94.42 E118.23835
G1 X135.314 Y94.957 E118.31171
G1 X137.45 Y94.265 E118.55421
G1 X141.819 Y94.265 E119.02606
G1 X143.825 Y94.947 E119.25488
G1 X144.084 Y95.136 E119.28951
G1 X145.91 Y93.678 E119.54187
G1 X147.985 Y93.185 E119.77221
G1 X151.442 Y93.185 E120.14557
G1 X153.63 Y93.929 E120.39516
G1 X155.733 Y96.094 E120.72113
G1 X156.54 Y98.566 E121.00197
G1 X156.542 Y103.865 E121.57426
G1 X157.369 Y105.337 E121.75661
G1 X157.835 Y107.009 E121.94407
G1 X157.839 Y109.866 E122.25263
G1 X157.796 Y110.574 E122.32923
G1 X157.84 Y111.305 E122.40832
G1 X157.84 Y113.443 E122.63923
G1 X157.278 Y115.785 E122.89934
G1 X156.546 Y116.795 E123.03406
G1 X156.539 Y124.428 E123.85842
G1 X156.209 Y125.924 E124.02387
G1 X155.353 Y127.326 E124.20128
G1 X153.613 Y129.012 E124.46295
G1 X151.138 Y129.815 E124.74397
G1 X147.59 Y129.815 E125.12715
G1 X145.492 Y129.135 E125.36534
G1 X144.089 Y127.804 E125.5742
G1 X143.816 Y127.994 E125.61012
G1 X141.529 Y128.735 E125.86976
G1 X137.459 Y128.735 E126.30932
G1 X135.95 Y128.407 E126.4761
G1 X135.383 Y128.061 E126.54783
G1 X135.092 Y128.475 E126.60249
G1 X133.21 Y129.986 E126.86315
G1 X131.139 Y130.451 E127.09238
G1 X129.059 Y130.4 E127.31709
G1 X127.73 Y129.877 E127.47134
G1 X126.569 Y129.827 E127.59684
G1 X106.329 Y129.814 E129.78276
G1 X104.224 Y129.128 E130.02187
G1 X102.832 Y127.805 E130.22927
G1 X102.56 Y127.995 E130.26511
G1 X100.275 Y128.735 E130.5245
G1 X96.122 Y128.735 E130.97303
G1 X94.614 Y128.407 E131.1397
G1 X93.52 Y127.739 E131.27814
G1 X92.93 Y128.473 E131.37984
G1 X90.06 Y129.815 E131.72202
G1 X71.357 Y129.815 E133.74194
G1 X69.727 Y129.459 E133.92213
G1 X68.406 Y128.592 E134.09278
G1 X66.783 Y126.937 E134.34313
G1 X65.973 Y124.557 E134.61464
G1 X65.917 Y121.496 E134.94529
G1 X65.56 Y119.983 E135.11318
G1 X65.56 Y116.98 E135.4375
G1 X65.927 Y115.729 E135.5783
G1 X65.952 Y114.786 E135.68018
G1 X65.961 Y112.363 E135.94187
G1 X66.118 Y111.773 E136.00781
G1 X65.96 Y111.205 E136.07148
G1 X65.96 Y107.342 E136.48868
G1 X65.56 Y106.173 E136.62212
G1 X65.56 Y102.803 E136.98608
G1 X65.955 Y101.553 E137.12766
G1 X65.961 Y98.578 E137.44896
G1 X66.336 Y96.905 E137.63413
G1 X67.208 Y95.605 E137.80319
G1 X68.889 Y93.986 E138.05525
G0 F7200 X69.101 Y94.337
G1 F1800 X71.412 Y93.585 E138.31772
G1 X89.402 Y93.63 E140.26064
G1 X90.887 Y93.875 E140.42319
G1 X92.689 Y95.006 E140.65296
G1 X93.456 Y95.808 E140.77282
G1 X93.949 Y95.387 E140.84283
G1 X96.177 Y94.665 E141.09577
G1 X100.498 Y94.665 E141.56244
G1 X102.442 Y95.326 E141.7842
G1 X102.882 Y95.716 E141.8477
G1 X103.092 Y95.436 E141.8855
G1 X104.836 Y94.046 E142.12636
G1 X106.776 Y93.585 E142.34171
G1 X127.732 Y93.583 E144.60496
G1 X128.858 Y93.091 E144.73767
G1 X130.798 Y92.768 E144.95007
G1 X133.114 Y93.517 E145.21296
G1 X134.612 Y94.704 E145.41937
G1 X135.202 Y95.465 E145.52337
G1 X135.375 Y95.358 E145.54534
G1 X137.514 Y94.665 E145.78817
G1 X141.752 Y94.665 E146.24588
G1 X143.696 Y95.326 E146.46763
G1 X144.136 Y95.716 E146.53113
G1 X144.346 Y95.436 E146.56893
G1 X146.09 Y94.046 E146.80979
G1 X148.031 Y93.585 E147.02525
G1 X151.375 Y93.585 E147.3864
G1 X153.41 Y94.277 E147.61854
G1 X155.382 Y96.307 E147.9242
G1 X156.14 Y98.629 E148.188
G1 X156.142 Y103.97 E148.76482
G1 X156.998 Y105.493 E148.95351
G1 X157.435 Y107.062 E149.12941
G1 X157.439 Y109.867 E149.43235
G1 X157.396 Y110.574 E149.50885
G1 X157.44 Y111.305 E149.58794
G1 X157.44 Y113.396 E149.81377
G1 X156.908 Y115.614 E150.06011
G1 X156.168 Y116.635 E150.19629
G1 X156.146 Y117.233 E150.26092
G1 X156.139 Y124.383 E151.03312
G1 X155.832 Y125.775 E151.18707
G1 X155.039 Y127.074 E151.35143
G1 X153.401 Y128.661 E151.59775
G1 X151.077 Y129.415 E151.86162
G1 X147.651 Y129.415 E152.23163
G1 X145.702 Y128.783 E152.45291
G1 X144.106 Y127.269 E152.6905
G1 X143.693 Y127.613 E152.74855
G1 X141.465 Y128.335 E153.00149
G1 X137.503 Y128.335 E153.42939
G1 X136.1 Y128.03 E153.58445
G1 X135.259 Y127.516 E153.6909
G1 X134.841 Y128.163 E153.77409
G1 X133.031 Y129.617 E154.02483
G1 X131.101 Y130.05 E154.23845
G1 X129.139 Y130.002 E154.45041
G1 X127.813 Y129.48 E154.60432
G1 X126.586 Y129.427 E154.73696
G1 X106.392 Y129.414 E156.91791
G1 X104.435 Y128.776 E157.14021
G1 X102.85 Y127.27 E157.37634
G1 X102.437 Y127.614 E157.43439
G1 X100.211 Y128.335 E157.6871
G1 X96.166 Y128.335 E158.12396
G1 X94.763 Y128.03 E158.27902
G1 X93.428 Y127.215 E158.44794
G1 X92.675 Y128.151 E158.57768
G1 X89.972 Y129.415 E158.89995
G1 X71.401 Y129.415 E160.90562
G1 X69.884 Y129.084 E161.07331
G1 X68.66 Y128.28 E161.23147
G1 X67.133 Y126.724 E161.46692
G1 X66.372 Y124.486 E161.72221
G1 X66.316 Y121.447 E162.05048
G1 X65.96 Y119.938 E162.21793
G1 X65.96 Y117.038 E162.53113
G1 X66.326 Y115.792 E162.67138
G1 X66.352 Y114.796 E162.77899
G1 X66.361 Y112.364 E163.04164
G1 X66.537 Y111.769 E163.10866
G1 X66.36 Y111.205 E163.1725
G1 X66.36 Y107.277 E163.59672
G1 X65.96 Y106.108 E163.73016
G1 X65.96 Y102.864 E164.08051
G1 X66.355 Y101.614 E164.22209
G1 X66.361 Y98.622 E164.54523
G1 X66.71 Y97.066 E164.71745
G1 X67.515 Y95.865 E164.8736
G1 X69.101 Y94.337 E165.11145
G0 F7200 X69.312 Y94.689
G1 F1800 X71.474 Y93.985 E165.35701
G1 X89.337 Y94.025 E167.28622
G1 X90.742 Y94.257 E167.44002
G1 X92.434 Y95.319 E167.65577
G1 X93.446 Y96.376 E167.81381
G1 X94.072 Y95.768 E167.90805
